build/img/icons/person.svg

<svg width="13" height="16" viewBox="0 0 13 16" fill="none" xmlns="http://www.w3.org/2000/svg">
<path d="M8.8924 10.1991H9.88084C10.9936 10.1991 12.081 11.0107 11.896 12.0545L11.6945 13.0439C11.4176 14.1957 10.7921 14.8993 9.67933 15H3.33351C2.22072 14.8993 1.62121 14.0222 1.31832 13.0439L1.11681 12.0545C0.871559 11.0418 2.01921 10.1991 3.13199 10.1991H4.09323M3.08666 4.35241C2.85894 4.35241 2.63143 4.54017 2.63143 4.77153V5.60959C2.63143 5.84076 2.83536 6.02889 3.08666 6.02889C3.08666 6.02889 3.7694 7.70482 4.22443 8.3336C4.50635 8.72322 4.90717 9.65849 6.50018 9.65849C8.09318 9.65849 8.4938 8.72322 8.77592 8.3336C9.23115 7.70482 9.9137 6.02889 9.9137 6.02889C10.1648 6.02889 10.3689 5.84076 10.3689 5.60959V4.77153C10.3689 4.54017 10.1648 4.35241 9.9137 4.35241V3.72382C9.9137 2.25718 9.01251 1 6.50018 1C3.99671 1 3.08666 2.25699 3.08666 3.72382V4.35241Z" stroke="white" stroke-miterlimit="10" stroke-linecap="round" stroke-linejoin="round"/>
</svg>

<svg width="13" height="16" fill="none" xmlns="http://www.w3.org/2000/svg"><path d="M8.892 10.2h.989c1.113 0 2.2.81 2.015 1.855l-.202.989c-.276 1.152-.902 1.855-2.015 1.956H3.334c-1.113-.1-1.713-.978-2.016-1.956l-.201-.99c-.245-1.012.902-1.855 2.015-1.855h.961M3.087 4.352c-.228 0-.456.188-.456.42v.838c0 .23.204.419.456.419 0 0 .682 1.676 1.137 2.305.282.39.683 1.324 2.276 1.324 1.593 0 1.994-.935 2.276-1.324.455-.63 1.138-2.305 1.138-2.305.25 0 .455-.188.455-.42v-.837c0-.232-.204-.42-.455-.42v-.628C9.914 2.257 9.013 1 6.5 1 3.997 1 3.087 2.257 3.087 3.724v.628z" stroke="#fff" stroke-miterlimit="10" stroke-linecap="round" stroke-linejoin="round"/></svg>
